X:229
T:Monk's March
N:
M:2/4
L:1/8
Q:150
K:G
D | G2 GB A2 Ac | Bdge d3 c |BdBG AcAF | G2  G2  G3 D |
G2 GB A2 Ac | Bdge d3 c |BdBG AcAF | G2  G2  G3 ||
B/2c/2 | d>e dc B2 B2 | c>d cB A2 A2 |d>e dc B2 B2 | cdec AcAF |
G2 GB A2 Ac | Bdge d3 c |BdBG AcAF | G2  G2  G3 ||
